X: 1
T: I Saw Three Ships
M: 6/8
L: 1/8
R: jig
K: Gmaj
|: D |  
G2 G A2 B | d2 B A2 c | B2 G GAB | A2 F D2 D |
G2 G A2 B | d2 B ABc | B2 G GAB | A3 G2 :|
|: d | 
gfe d2 d | gfe d2 d | gg/f/e d>cB | A2 B c2 e |
dcB c2 A | BAG ABc | d2 G G>AB | A3 G2 :|
